X: 40519
T: Tommy Hunt's Jig
R: slip jig
M: 9/8
K: Gmajor
d|:BG ~G2 G2|BG ~G2 gd|BG GF G2|EA AB c/B/A:|
|:dg ga fd|gB BA Bc|dg ga fd|1 eA AB c/B/A:|2 e/f/g af g||

